lib/brands/logos/adobe.svg

<svg xmlns="http://www.w3.org/2000/svg" fill="none" aria-hidden="true" viewBox="0 0 203 59"><g id="Adobe"><g id="Union"><path fill="#FA0F00" d="M28.8576 5.38734H8.65425V53.7207L28.8576 5.38734Z"/><path fill="#FA0F00" d="M63.2692 5.38734H43.0822L63.2692 53.7207V5.38734Z"/><path fill="#FA0F00" fill-rule="evenodd" d="M119.435 22.9676C111.799 22.9676 107.334 27.9724 107.334 33.9388C107.334 41.0348 112.089 44.5377 118.265 44.5377C121.09 44.541 123.886 43.9731 126.486 42.8681C126.735 42.7862 126.776 42.7003 126.776 42.4916C126.654 41.4815 126.598 40.4644 126.609 39.447V14.7913C126.609 14.6235 126.568 14.5417 126.359 14.5417H121.1C121.061 14.5371 121.021 14.5414 120.984 14.5544C120.947 14.5674 120.913 14.5887 120.885 14.6166C120.857 14.6446 120.836 14.6785 120.823 14.7158C120.81 14.7532 120.805 14.793 120.81 14.8322V23.0494C120.619 23.037 120.448 23.0245 120.293 23.0132C119.938 22.9874 119.665 22.9676 119.435 22.9676ZM119.267 27.8087C119.79 27.784 120.313 27.8547 120.81 28.0174V39.3242C120.175 39.5173 119.513 39.6017 118.85 39.5738C115.678 39.5738 113.301 37.7774 113.301 33.6483C113.301 29.7689 116.055 27.8087 119.267 27.8087Z" clip-rule="evenodd"/><path fill="#FA0F00" fill-rule="evenodd" d="M86.8322 43.7847L88.8333 37.6136H98.4541L100.582 43.8297C100.61 43.9266 100.672 44.0098 100.758 44.0634C100.843 44.117 100.945 44.1373 101.044 44.1203H106.459C106.708 44.1203 106.749 43.9525 106.667 43.7438L97.1978 17.042C97.1528 16.8333 97.0709 16.7924 96.8622 16.7924H90.1878C90.1169 16.7996 90.0515 16.8338 90.0051 16.8879C89.9586 16.9419 89.9347 17.0117 89.9382 17.0829C89.9452 17.9483 89.8069 18.8087 89.529 19.6283L81.1849 43.7111C81.1399 43.9525 81.2258 44.1203 81.5164 44.1203H86.3739C86.4772 44.1255 86.5792 44.095 86.6626 44.0339C86.7461 43.9728 86.806 43.8848 86.8322 43.7847ZM95.7337 28.5607L95.7352 28.5655C96.1926 30.0106 96.6211 31.3642 96.9277 32.396H90.3188C90.3986 32.1497 90.4806 31.8971 90.5642 31.6395C91.6331 28.3457 92.9701 24.2257 93.5926 21.6335H93.6335C94.1267 23.4835 94.9693 26.1458 95.7319 28.5551L95.7324 28.5566L95.7328 28.5579L95.7332 28.5593L95.7334 28.5597L95.7337 28.5607Z" clip-rule="evenodd"/><path fill="#FA0F00" fill-rule="evenodd" d="M150.503 33.6483C150.503 40.1959 146.247 44.5377 140.24 44.5377C133.103 44.5377 129.936 39.1564 129.936 33.7751C129.936 27.8496 133.897 22.9676 140.322 22.9676C147.041 22.9676 150.503 28.0174 150.503 33.6483ZM135.816 33.6892C135.816 37.3722 137.527 39.6966 140.318 39.6966C142.74 39.6966 144.574 37.6137 144.574 33.7751C144.574 30.5014 143.239 27.8087 140.072 27.8087C137.654 27.8087 135.816 29.9776 135.816 33.6892Z" clip-rule="evenodd"/><path fill="#FA0F00" fill-rule="evenodd" d="M159.682 14.8731C159.682 14.5826 159.604 14.5417 159.273 14.5417H154.178C153.969 14.5417 153.888 14.6235 153.888 14.8322V43.1668C153.89 43.2508 153.914 43.3328 153.958 43.4046C154.002 43.4764 154.064 43.5355 154.137 43.576C156.258 44.2289 158.466 44.5533 160.685 44.5377C167.024 44.5377 173.199 40.6992 173.199 32.8953C173.199 27.3053 169.323 22.9676 163.185 22.9676C162.002 22.966 160.825 23.1201 159.682 23.4259V14.8731ZM159.682 28.2261C160.479 27.9932 161.307 27.8801 162.137 27.8905H162.15C165.072 27.8905 167.281 29.642 167.273 33.46C167.273 37.7978 164.396 39.7171 161.225 39.7171C160.706 39.7234 160.188 39.6685 159.682 39.5534V28.2261Z" clip-rule="evenodd"/><path fill="#FA0F00" fill-rule="evenodd" d="M181.363 35.277C181.571 37.6546 183.241 39.6147 187.329 39.6147C189.088 39.6486 190.834 39.3213 192.461 38.6531C192.588 38.5712 192.71 38.6121 192.71 38.8618V42.8271C192.71 43.1177 192.629 43.2364 192.42 43.3264C190.75 44.1203 188.917 44.5541 186.036 44.5541C178.191 44.5541 175.441 39.1728 175.441 34.0002C175.441 28.2424 178.985 22.9839 185.537 22.9839C191.835 22.9839 194.339 27.8659 194.339 31.9868C194.369 32.9232 194.299 33.8602 194.13 34.7818C194.125 34.8689 194.088 34.951 194.026 35.0127C193.964 35.0744 193.882 35.1116 193.795 35.1174C192.367 35.2523 190.932 35.3083 189.498 35.2852L181.363 35.277ZM186.789 31.2298C187.485 31.2552 188.181 31.2265 188.872 31.1438V30.8533C188.86 30.4027 188.758 29.9591 188.573 29.5483C188.387 29.1375 188.122 28.7677 187.792 28.4606C187.462 28.1536 187.074 27.9153 186.651 27.7598C186.228 27.6043 185.778 27.5347 185.328 27.5549C182.701 27.5549 181.571 29.5192 181.322 31.2379L186.789 31.2298Z" clip-rule="evenodd"/><path fill="#FA0F00" d="M48.8317 53.7207L35.9699 23.2008L27.1429 44.0016H36.555L40.4017 53.7207H48.8317Z"/></g></g></svg>

<svg xmlns="http://www.w3.org/2000/svg" fill="none" aria-hidden="true" viewBox="0 0 203 59"><g fill="#FA0F00"><path d="M28.858 5.387H8.654v48.334L28.858 5.387Zm34.412 0H43.081L63.27 53.721V5.387Z"/><path fill-rule="evenodd" d="M119.435 22.968c-7.636 0-12.101 5.004-12.101 10.97 0 7.097 4.755 10.6 10.931 10.6a20.954 20.954 0 0 0 8.221-1.67c.249-.082.29-.168.29-.376a23.292 23.292 0 0 1-.167-3.045V14.791c0-.168-.041-.25-.25-.25H121.1a.26.26 0 0 0-.277.175c-.013.037-.018.077-.013.116v8.217a35.705 35.705 0 0 1-.517-.036 12.711 12.711 0 0 0-.858-.045Zm-.168 4.84a4.307 4.307 0 0 1 1.543.21v11.306a5.883 5.883 0 0 1-1.96.25c-3.172 0-5.549-1.797-5.549-5.926 0-3.88 2.754-5.84 5.966-5.84ZM86.832 43.785l2.001-6.171h9.621l2.128 6.216a.408.408 0 0 0 .462.29h5.415c.249 0 .29-.167.208-.376l-9.47-26.702c-.044-.209-.126-.25-.335-.25h-6.674a.278.278 0 0 0-.25.29 7.732 7.732 0 0 1-.409 2.546l-8.344 24.083c-.045.242.04.41.331.41h4.858a.45.45 0 0 0 .458-.336Zm8.902-15.224.001.005c.458 1.445.886 2.798 1.193 3.83h-6.61l.246-.756c1.07-3.294 2.406-7.414 3.029-10.006h.04c.494 1.85 1.336 4.512 2.099 6.921v.002l.001.002v.002Zm54.769 5.087c0 6.548-4.256 10.89-10.263 10.89-7.137 0-10.304-5.382-10.304-10.763 0-5.925 3.961-10.807 10.386-10.807 6.719 0 10.181 5.05 10.181 10.68Zm-14.687.041c0 3.683 1.711 6.008 4.502 6.008 2.422 0 4.256-2.083 4.256-5.922 0-3.274-1.335-5.966-4.502-5.966-2.418 0-4.256 2.169-4.256 5.88Zm23.866-18.816c0-.29-.078-.331-.409-.331h-5.095c-.209 0-.29.082-.29.29v28.335a.477.477 0 0 0 .249.409c2.121.653 4.329.977 6.548.962 6.339 0 12.514-3.839 12.514-11.643 0-5.59-3.876-9.927-10.014-9.927a13.479 13.479 0 0 0-3.503.458v-8.553Zm0 13.353a8.381 8.381 0 0 1 2.455-.335h.013c2.922 0 5.131 1.751 5.123 5.569 0 4.338-2.877 6.257-6.048 6.257a6.596 6.596 0 0 1-1.543-.164V28.226Zm21.681 7.051c.208 2.378 1.878 4.338 5.966 4.338a12.854 12.854 0 0 0 5.132-.962c.127-.082.249-.04.249.209v3.965c0 .29-.081.41-.29.5-1.67.793-3.503 1.227-6.384 1.227-7.845 0-10.595-5.381-10.595-10.554 0-5.758 3.544-11.016 10.096-11.016 6.298 0 8.802 4.882 8.802 9.003.03.936-.04 1.873-.209 2.795a.362.362 0 0 1-.335.336c-1.428.134-2.863.19-4.297.167l-8.135-.008Zm5.426-4.047a13.42 13.42 0 0 0 2.083-.086v-.29a3.399 3.399 0 0 0-1.08-2.393 3.395 3.395 0 0 0-2.464-.906c-2.627 0-3.757 1.964-4.006 3.683l5.467-.008Z" clip-rule="evenodd"/><path d="M48.832 53.72 35.97 23.2l-8.827 20.802h9.412l3.847 9.719h8.43Z"/></g></svg>
